X: 39648
T: Templehouse, The
R: reel
M: 4/4
K: Eminor
EFGA BFAF|D2FD ADFD|EFGA BE~E2|1 dBAc BEED:|2 dBAc BEE2||
g2ef gfeg|f2df afdf|g2ef gfed|B2Ac BE~E2|
g2ef gfeg|f2df afdf|edef gfed|B2Ac BEED||

